X: 5
T: Flowers Of Red Hill, The
Z: Mr G. Cunningham
S: https://thesession.org/tunes/442#setting28524
R: reel
M: 4/4
L: 1/8
K: Amix
eA (3AAA gAfA|eA (3AAA (3efe df|eA (3AAA eAaf|gedB GABd:|
|:ea (3aaa ba ag|1eaag edBd|ea (3aaa ba ag|edeg gedg:| aged|edeg gedg||
